src/assets/support-print.svg

<svg xmlns="http://www.w3.org/2000/svg" width="57" height="50" viewBox="0 0 57 50">
  <g fill="#010400" transform="translate(.5)">
    <path d="M54.6296296,6.32369433 C54.1182906,6.32369433 53.7037037,6.73828125 53.7037037,7.24962025 L53.7037037,47.8610568 L49.7870551,46.8144169 C42.8272389,44.9865271 35.4767976,45.3093352 28.7037037,47.7403428 L28.7037037,44.4349501 C34.3284324,42.3023366 40.4785156,41.9786241 46.2962963,43.5090242 L50.6759079,44.6754738 C50.7559317,44.6849682 50.8368598,44.6849682 50.9168837,44.6754738 C51.1203343,44.6777344 51.3188115,44.6126302 51.4815719,44.49056 C51.7112449,44.313784 51.8446181,44.0398039 51.8428096,43.7495479 L51.8428096,29.6201353 C51.8428096,29.1087963 51.4282227,28.6942094 50.9168837,28.6942094 C50.4050926,28.6942094 49.9909578,29.1087963 49.9909578,29.6201353 L49.9909578,42.5830983 L46.7683015,41.7218243 C40.8058449,40.1638455 34.5124421,40.4314959 28.7037037,42.4904153 L28.7037037,3.69420938 C34.3284324,1.56159583 40.4785156,1.23788333 46.2962963,2.76828345 L50,3.74981921 L50,25.9164316 C50,26.4277706 50.4145869,26.8423575 50.9259259,26.8423575 C51.4372649,26.8423575 51.8518519,26.4277706 51.8518519,25.9164316 L51.8518519,3.08295359 C51.8667715,2.65254271 51.5823929,2.26869931 51.1664497,2.15702766 L46.7777958,1.01815683 C40.4898184,-0.643355787 33.8360822,-0.264033565 27.7777778,2.10141782 C21.7172128,-0.254991319 15.0666413,-0.634313542 8.77775972,1.01815683 L4.3891059,2.19410081 C3.97316262,2.30577257 3.68878403,2.68961586 3.7037037,3.12002674 L3.7037037,13.8793946 C3.7037037,14.3907336 4.11829062,14.8053205 4.62962963,14.8053205 C5.14096863,14.8053205 5.55555556,14.3907336 5.55555556,13.8793946 L5.55555556,3.79593461 L9.25925926,2.81439884 C15.0720667,1.26907917 21.2221499,1.57696759 26.8518519,3.69420938 L26.8518519,42.4904153 C21.0363317,40.4418946 14.7397641,40.1869032 8.77775972,41.7588976 L5.55555556,42.5830983 L5.55555556,17.5830983 C5.55555556,17.0717593 5.14096863,16.6571723 4.62962963,16.6571723 C4.11829062,16.6571723 3.7037037,17.0717593 3.7037037,17.5830983 L3.7037037,43.8236943 C3.70144317,44.1134983 3.8352684,44.3879304 4.06494144,44.5647063 C4.22770185,44.6867766 4.42617917,44.7518808 4.62962963,44.7496203 C4.70965347,44.7586625 4.7905816,44.7586625 4.87015336,44.7496203 L9.25925926,43.5551396 C15.0770399,42.0247396 21.2271231,42.348452 26.8518519,44.4810655 L26.8518519,47.7313007 C20.078758,45.2998409 12.7283167,44.9770326 5.76850046,46.8053748 L1.85185185,47.8610568 L1.85185185,7.24962025 C1.85185185,6.73828125 1.43726493,6.32369433 0.925925926,6.32369433 C0.414586921,6.32369433 -9.86864911e-15,6.73828125 -9.86864911e-15,7.24962025 L-9.86864911e-15,49.0645797 C0.000904224537,49.3512189 0.133825231,49.6211299 0.361237731,49.7960973 C0.588650231,49.9742296 0.887044213,50.036169 1.16644965,49.9629269 L6.25,48.6016168 C13.21705,46.7588072 20.5919053,47.2036856 27.287236,49.8702438 L27.41654,49.9163593 C27.6367187,50.004069 27.8817637,50.004069 28.1019422,49.9163593 L28.2316985,49.8702438 C34.9378797,47.1955476 42.3267506,46.7506691 49.3055556,48.6016168 L54.3891059,49.9905057 C54.4686777,49.9995479 54.5496058,49.9995479 54.6296296,49.9905057 C55.1409686,49.9905057 55.5555556,49.5759188 55.5555556,49.0645797 L55.5555556,7.24962025 C55.5555556,6.73828125 55.1409686,6.32369433 54.6296296,6.32369433 L54.6296296,6.32369433 Z"/>
    <path d="M48.1481525 7.39791308C48.1476961 6.99734155 47.889992 6.64243345 47.5093135 6.51810255L45.5001266 5.87022569C43.6021593 5.24992766 41.5748878 5.1382559 39.6204065 5.54606123 39.1859266 5.6391963 38.8789424 6.02801285 38.8888889 6.47198715L38.8888889 14.8053205C38.8974791 15.0869863 39.0335648 15.3492116 39.2591689 15.5183015 39.4879376 15.6946252 39.7822627 15.76199 40.0648329 15.7036676 41.6861075 15.3623228 43.3684172 15.451841 44.9444806 15.9627279L46.9351309 16.6110568C47.0282661 16.6395399 47.1250181 16.6553639 47.2222222 16.6571723 47.4179868 16.6544596 47.607874 16.5929723 47.7683738 16.4813007 48.0079933 16.3063332 48.1490523 16.0273799 48.1481525 15.7312464L48.1481525 7.39791308zM46.2962963 14.4535771L45.5186632 14.203559C44.3888346 13.8337313 43.2074653 13.6461046 42.01841 13.6479131 41.591616 13.6497215 41.164822 13.6741355 40.7407407 13.7220595L40.7407407 7.24057801C42.14681 7.05521192 43.5763889 7.18496817 44.925944 7.62035231L46.2962963 8.0647787 46.2962963 14.4535771zM23.3981662 23.1386538C18.9986618 21.8795211 14.3346715 21.8795211 9.93516713 23.1386538 9.42382812 23.276548 9.12136505 23.8032588 9.25925926 24.3145978 9.39715347 24.8259368 9.92386435 25.1283999 10.4352032 24.9905057 14.5078306 23.824056 18.8255028 23.824056 22.8981301 24.9905057 22.9808667 25.004069 23.0654116 25.004069 23.1481481 24.9905057 23.6594872 25.0596788 24.130136 24.7011538 24.1988571 24.1893627 24.2680302 23.6780237 23.9095052 23.207827 23.3981662 23.1386538zM23.3981662 27.7682834C18.9986618 26.5091507 14.3346715 26.5091507 9.93516713 27.7682834 9.42382812 27.9061777 9.12136505 28.4328884 9.25925926 28.9442274 9.39715347 29.4555664 9.92386435 29.7580295 10.4352032 29.6201353 14.5078306 28.4536856 18.8255028 28.4536856 22.8981301 29.6201353 22.9808667 29.6336986 23.0654116 29.6336986 23.1481481 29.6201353 23.6594872 29.6893084 24.130136 29.3307834 24.1988571 28.8189924 24.2680302 28.3076534 23.9095052 27.8374566 23.3981662 27.7682834zM23.3981662 32.3979131C18.9986618 31.1387803 14.3346715 31.1387803 9.93516713 32.3979131 9.42382812 32.5358073 9.12136505 33.0625181 9.25925926 33.5738571 9.39715347 34.0851961 9.92386435 34.3876591 10.4352032 34.2497649 14.5078306 33.0833153 18.8255028 33.0833153 22.8981301 34.2497649 22.9808667 34.2633282 23.0654116 34.2633282 23.1481481 34.2497649 23.6594872 34.3189381 24.130136 33.9604131 24.1988571 33.448622 24.2680302 32.937283 23.9095052 32.4670862 23.3981662 32.3979131zM31.4814815 9.24976493L31.7039207 9.24976493 35.4076244 8.323839C35.9189634 8.20131655 36.2336336 7.68726493 36.1111111 7.17547384 35.9885887 6.66413484 35.474537 6.3494647 34.9627459 6.47198715L31.2590422 7.39791308C30.7477032 7.45940035 30.3833008 7.92371968 30.4443359 8.43505856 30.5058231 8.94639757 30.9701425 9.3112522 31.4814815 9.24976493zM30.5555556 12.2499819C30.6785301 12.745497 31.1799226 13.0479601 31.6758898 12.9258898L35.3795935 11.9999639C35.8832465 11.8846752 36.1983687 11.3832826 36.0835323 10.8791775 35.9682436 10.3755244 35.4668512 10.0608543 34.9627459 10.1756909L31.2590422 11.1016168C31.0099284 11.1540618 30.7929145 11.3068757 30.6599935 11.5238896 30.5266204 11.7413556 30.489095 12.0035808 30.5555556 12.2499819zM30.5555556 16.8796116C30.6785301 17.3751266 31.1799226 17.6775897 31.6758898 17.5555194L35.3795935 16.6295935C35.8832465 16.5143049 36.1983687 16.0129123 36.0835323 15.5088072 35.9682436 15.0051541 35.4668512 14.6904839 34.9627459 14.8053205L31.2590422 15.7312464C31.0099284 15.7836914 30.7929145 15.9365053 30.6599935 16.1535192 30.5266204 16.3709852 30.489095 16.6332104 30.5555556 16.8796116zM31.8612558 39.6294488C32.0217557 39.7411205 32.2116428 39.8026078 32.4074074 39.8053205 32.5028031 39.8184317 32.599103 39.8184317 32.6944987 39.8053205L34.6851491 39.1569914C36.2774884 38.6343497 37.979239 38.5385019 39.6204065 38.8793946 39.8943866 38.9386213 40.1801215 38.8703523 40.3980396 38.6940285 40.620931 38.5136356 40.7475225 38.2401078 40.7407407 37.9534686L40.7407407 29.6201353C40.7506873 29.176161 40.443703 28.7873444 40.0092231 28.6942094 38.0565502 28.2800745 36.0292788 28.3854167 34.129503 28.9998373L32.1203161 29.6477141C31.7328559 29.7743056 31.4737956 30.1387081 31.4814815 30.5460612L31.4814815 38.8793946C31.4805773 39.175528 31.6216363 39.4544814 31.8612558 39.6294488L31.8612558 39.6294488zM33.3333333 31.221969L34.7036856 30.7775427C36.0532407 30.3421586 37.4828197 30.2128544 38.8888889 30.3977684L38.8888889 36.8792499C37.2802734 36.6956922 35.6508609 36.859809 34.1109664 37.3607494L33.3333333 37.6107675 33.3333333 31.221969zM31.4814815 21.53682C31.6207321 22.0269097 32.1298104 22.3121926 32.6203523 22.1756546 36.6929796 21.009205 41.0111039 21.009205 45.0832791 22.1756546 45.175962 22.2059462 45.2731662 22.2186053 45.3703704 22.2127279 45.8817094 22.281901 46.3523582 21.923376 46.4210793 21.411585 46.4902524 20.9002459 46.1317274 20.4300492 45.6203884 20.360876 41.220884 19.1017433 36.5568937 19.1017433 32.1573894 20.360876 31.9069191 20.4187464 31.6912616 20.578342 31.5633138 20.8016854 31.4349139 21.0245769 31.4055266 21.2908709 31.4814815 21.53682zM45.3703704 26.8423575C45.8817094 26.9115307 46.3523582 26.5530057 46.4210793 26.0412146 46.4902524 25.5298756 46.1317274 25.0596788 45.6203884 24.9905057 41.220884 23.7313729 36.5568937 23.7313729 32.1573894 24.9905057 31.6460503 25.1283999 31.3435873 25.6551106 31.4814815 26.1664497 31.6193757 26.6777887 32.1460866 26.9802517 32.6574255 26.8423575 36.7300528 25.6759079 41.047725 25.6759079 45.1203523 26.8423575 45.2030889 26.8559208 45.2876338 26.8559208 45.3703704 26.8423575L45.3703704 26.8423575zM43.2960793 31.4719872L46.999783 32.3979131C47.2461841 32.4643736 47.5084093 32.4268483 47.7258752 32.2934751 47.9428891 32.1605542 48.0957031 31.9435403 48.1481481 31.6944264 48.2146087 31.4480252 48.1770833 31.1858 48.0437102 30.968334 47.9107892 30.7513201 47.6937753 30.5985062 47.4446615 30.5460612L43.7409578 29.6201353C43.2291667 29.4976128 42.715115 29.812283 42.5925926 30.323622 42.4700701 30.8354131 42.7847403 31.3494647 43.2960793 31.4719872zM23.1481481 12.0275427C23.6594872 12.0275427 24.0740741 11.6129558 24.0740741 11.1016168L24.0740741 8.323839C24.089898 7.89614074 23.8104926 7.51320162 23.3981662 7.39791308 18.9986618 6.13878032 14.3346715 6.13878032 9.93516713 7.39791308 9.52284074 7.51320162 9.2434353 7.89614074 9.25925926 8.323839L9.25925926 19.4349501C9.25925926 19.7265625 9.39670139 20.0009947 9.62953924 20.17551 9.86056852 20.3477648 10.1580584 20.4024704 10.4352032 20.3238028 14.5078306 19.1573531 18.8255028 19.1573531 22.8981301 20.3238028 22.9790581 20.3495731 23.063151 20.3622324 23.1481481 20.3609746 23.6594872 20.3609746 24.0740741 19.9462891 24.0740741 19.4349501L24.0740741 14.8053205C24.0740741 14.2939815 23.6594872 13.8793946 23.1481481 13.8793946 22.6368091 13.8793946 22.2222222 14.2939815 22.2222222 14.8053205L22.2222222 18.2404694C18.5673466 17.3886899 14.7659867 17.3886899 11.1111111 18.2404694L11.1111111 9.03682002C14.7569444 8.1108941 18.5763889 8.1108941 22.2222222 9.03682002L22.2222222 11.1016168C22.2222222 11.6129558 22.6368091 12.0275427 23.1481481 12.0275427z"/>
  </g>
</svg>

<svg xmlns="http://www.w3.org/2000/svg" width="56" height="50"><g fill="#01171A"><path d="M54.63 6.324a.926.926 0 00-.926.926V47.86l-3.917-1.047a35.623 35.623 0 00-21.083.926v-3.305a28.891 28.891 0 0117.592-.926l4.38 1.166c.08.01.16.01.24 0a.924.924 0 00.566-.184.927.927 0 00.36-.741V29.62a.926.926 0 00-1.851 0v12.963l-3.223-.861a30.78 30.78 0 00-18.064.768V3.694a28.891 28.891 0 0117.592-.926L50 3.75v22.166a.926.926 0 001.852 0V3.083a.926.926 0 00-.686-.926l-4.388-1.139a30.687 30.687 0 00-19 1.083 30.818 30.818 0 00-19-1.083L4.389 2.194a.926.926 0 00-.685.926v10.76a.926.926 0 001.852 0V3.795l3.703-.982a28.89 28.89 0 0117.593.88V42.49a30.78 30.78 0 00-18.074-.731l-3.222.824v-25a.926.926 0 00-1.852 0v26.24a.926.926 0 00.36.742.924.924 0 00.566.185c.08.009.16.009.24 0l4.39-1.195a28.891 28.891 0 0117.592.926v3.25a35.616 35.616 0 00-21.083-.926l-3.917 1.056V7.25A.926.926 0 000 7.25v41.815c0 .286.134.556.361.731.228.178.526.24.805.167l5.084-1.361a33.621 33.621 0 0121.037 1.268l.13.046c.22.088.465.088.685 0l.13-.046a33.62 33.62 0 0121.074-1.268l5.083 1.389c.08.009.16.009.24 0a.926.926 0 00.927-.926V7.25a.926.926 0 00-.926-.926z"/><path d="M48.148 7.398c0-.4-.258-.756-.639-.88L45.5 5.87a11.419 11.419 0 00-5.88-.324.926.926 0 00-.731.926v8.333a.926.926 0 00.37.713.991.991 0 00.806.186 9.486 9.486 0 014.88.259l1.99.648c.093.029.19.044.287.046a.98.98 0 00.546-.176.925.925 0 00.38-.75V7.398zm-1.852 7.056l-.777-.25a11.196 11.196 0 00-4.778-.482V7.241a9.561 9.561 0 014.185.38l1.37.444v6.389zm-22.898 8.685a24.464 24.464 0 00-13.463 0 .96.96 0 00.5 1.852 22.63 22.63 0 0112.463 0 .773.773 0 00.25 0 .934.934 0 10.25-1.852zm0 4.63a24.464 24.464 0 00-13.463 0 .96.96 0 00.5 1.851 22.63 22.63 0 0112.463 0 .773.773 0 00.25 0 .934.934 0 10.25-1.852zm0 4.629a24.464 24.464 0 00-13.463 0 .96.96 0 00.5 1.852 22.63 22.63 0 0112.463 0 .773.773 0 00.25 0 .934.934 0 10.25-1.852zM31.481 9.25h.223l3.704-.926a.952.952 0 10-.445-1.852l-3.704.926a.933.933 0 00.222 1.852zm-.925 3a.926.926 0 001.12.676L35.38 12a.936.936 0 00-.417-1.824l-3.704.926a.927.927 0 00-.703 1.148zm0 4.63a.926.926 0 001.12.676l3.704-.926a.936.936 0 00-.417-1.825l-3.704.926a.927.927 0 00-.703 1.149zm1.305 22.75a.98.98 0 00.546.175c.096.013.192.013.287 0l1.991-.648a9.579 9.579 0 014.935-.278.925.925 0 001.12-.926V29.62a.926.926 0 00-.73-.926 11.412 11.412 0 00-5.88.306l-2.01.648a.926.926 0 00-.639.898v8.333c0 .297.14.575.38.75zm1.472-8.408l1.37-.444a9.568 9.568 0 014.186-.38v6.481a11.303 11.303 0 00-4.778.482l-.778.25v-6.389zm-1.852-9.685c.14.49.649.775 1.14.639a22.63 22.63 0 0112.462 0c.093.03.19.043.287.037a.934.934 0 10.25-1.852 24.464 24.464 0 00-13.463 0 .925.925 0 00-.676 1.176zm13.89 5.305a.934.934 0 10.25-1.851 24.464 24.464 0 00-13.464 0 .96.96 0 00.5 1.851 22.63 22.63 0 0112.463 0 .773.773 0 00.25 0zm-2.075 4.63l3.704.926a.926.926 0 001.148-.704.926.926 0 00-.703-1.148l-3.704-.926a.952.952 0 10-.445 1.852zM23.148 12.028a.926.926 0 00.926-.926V8.324a.926.926 0 00-.676-.926 24.464 24.464 0 00-13.463 0 .926.926 0 00-.676.926v11.111a.926.926 0 001.176.889 22.63 22.63 0 0112.463 0c.081.026.165.038.25.037a.926.926 0 00.926-.926v-4.63a.926.926 0 00-1.852 0v3.435a24.476 24.476 0 00-11.11 0V9.037a22.57 22.57 0 0111.11 0v2.065c0 .511.415.926.926.926z"/></g></svg>
